X: 305756
M: 2/4
L: 1/16
K: C
e3f d3e | c2A2G2E2 | B2c2 dcBc | d2d2d2 cd |\
e3f d3e | c2A2 G2E2 | G2c2 edce | e2c2c2 H|]
a2 |\
g2c2c2a2 | g2c2c2f2 | e2c2a3f | e3f g2a2 |\
g2c2c2a2 | g2c2c2f2 | e2c2g2e2 | d2e2 gfe"^D.C."d |]


